src/assets/icons/svg/options.svg

<svg width="24" height="24" viewBox="0 0 24 24" fill="none" xmlns="http://www.w3.org/2000/svg">
<path d="M12 6.5625C9.00173 6.5625 6.5625 9.00178 6.5625 12C6.5625 14.9982 9.00173 17.4375 12 17.4375C12.56 17.4375 13.1126 17.3525 13.6423 17.1848C14.136 17.0286 14.4094 16.5018 14.2532 16.0081C14.097 15.5145 13.57 15.241 13.0765 15.3972C12.73 15.5069 12.3678 15.5625 12 15.5625C10.0357 15.5625 8.4375 13.9644 8.4375 12C8.4375 10.0356 10.0357 8.4375 12 8.4375C13.9643 8.4375 15.5625 10.0356 15.5625 12C15.5625 12.3414 15.5145 12.6787 15.4198 13.0025C15.2744 13.4994 15.5595 14.0201 16.0564 14.1654C16.5535 14.3108 17.074 14.0258 17.2194 13.5288C17.3641 13.034 17.4375 12.5196 17.4375 12C17.4375 9.00178 14.9983 6.5625 12 6.5625Z" fill="black"/>
<path d="M21.1875 8.7188H20.7154C20.5912 8.7188 20.4786 8.64056 20.4299 8.52253L20.4215 8.50228C20.371 8.38069 20.3952 8.24536 20.483 8.15752L20.8169 7.82367C21.9135 6.72708 21.9135 4.94278 20.8169 3.84619L20.154 3.18328C19.6227 2.65205 18.9164 2.3595 18.1652 2.3595C17.4139 2.3595 16.7076 2.65205 16.1764 3.18328L15.8426 3.51708C15.7547 3.60497 15.6193 3.62906 15.4982 3.57877L15.4806 3.57145C15.3595 3.52144 15.2813 3.40889 15.2813 3.28472V2.8125C15.2813 1.26169 14.0196 0 12.4688 0H11.5313C9.98048 0 8.7188 1.26169 8.7188 2.8125V3.28472C8.7188 3.40889 8.64061 3.52144 8.52056 3.57098L8.50223 3.57858C8.38078 3.62911 8.24531 3.60497 8.15752 3.51712L7.82367 3.18328C7.29248 2.65205 6.58617 2.3595 5.83491 2.3595C5.08364 2.3595 4.37738 2.65205 3.84614 3.18328L3.18323 3.84609C2.08664 4.94273 2.08664 6.72698 3.18328 7.82363L3.51708 8.15742C3.60492 8.24531 3.62902 8.38064 3.57712 8.5057L3.57145 8.51939C3.52148 8.64047 3.40884 8.7187 3.28467 8.7187H2.8125C1.26169 8.7187 0 9.98039 0 11.5312V12.4687C0 14.0195 1.26169 15.2812 2.8125 15.2812H3.28463C3.40884 15.2812 3.52139 15.3594 3.57019 15.4775L3.57853 15.4977C3.62902 15.6193 3.60487 15.7546 3.51703 15.8425L3.18323 16.1763C2.652 16.7076 2.35945 17.4138 2.35945 18.1651C2.35945 18.9163 2.652 19.6226 3.18319 20.1538L3.84609 20.8167C4.37733 21.348 5.08364 21.6405 5.83486 21.6405C6.58617 21.6405 7.29244 21.348 7.82363 20.8167L8.15742 20.4829C8.24522 20.395 8.38073 20.3709 8.50181 20.4212L8.51948 20.4285C8.64056 20.4786 8.71875 20.5911 8.71875 20.7153V21.1875C8.71875 22.7383 9.98044 24 11.5312 24H12.4688C14.0196 24 15.2812 22.7383 15.2812 21.1875V20.7153C15.2812 20.5911 15.3594 20.4786 15.4795 20.429L15.4978 20.4214C15.6194 20.371 15.7547 20.3951 15.8425 20.4829L16.1764 20.8167C16.7076 21.348 17.4139 21.6405 18.1651 21.6405C18.9164 21.6405 19.6227 21.348 20.1539 20.8167L20.8168 20.1538C21.348 19.6226 21.6405 18.9163 21.6405 18.1651C21.6405 17.4138 21.348 16.7076 20.8168 16.1764L20.483 15.8425C20.3951 15.7547 20.371 15.6194 20.4215 15.4978L20.4285 15.4806C20.4786 15.3595 20.5912 15.2813 20.7153 15.2813H21.1875C22.7383 15.2813 24 14.0196 24 12.4688V11.5313C24 9.98048 22.7383 8.7188 21.1875 8.7188ZM22.125 12.4688C22.125 12.9857 21.7044 13.4062 21.1875 13.4062H20.7153C19.8292 13.4062 19.0364 13.9395 18.6955 14.7648L18.6894 14.7795C18.3473 15.6045 18.5308 16.542 19.1571 17.1683L19.491 17.5022C19.668 17.6792 19.7655 17.9147 19.7655 18.1651C19.7655 18.4155 19.668 18.6509 19.4909 18.828L18.828 19.4909C18.6509 19.668 18.4155 19.7655 18.1651 19.7655C17.9146 19.7655 17.6792 19.668 17.5022 19.4909L17.1683 19.157C16.5417 18.5305 15.6036 18.3472 14.7781 18.69L14.7649 18.6955C13.9395 19.0363 13.4062 19.8291 13.4062 20.7153V21.1875C13.4062 21.7044 12.9857 22.125 12.4688 22.125H11.5312C11.0143 22.125 10.5938 21.7044 10.5938 21.1875V20.7153C10.5938 19.8291 10.0605 19.0363 9.23414 18.6951L9.22149 18.6899C8.94539 18.5752 8.65678 18.5194 8.37131 18.5194C7.80361 18.5194 7.24861 18.7402 6.83166 19.1571L6.49781 19.491C6.32072 19.668 6.08536 19.7655 5.83491 19.7655C5.5845 19.7655 5.34905 19.668 5.172 19.4909L4.50909 18.828C4.332 18.6509 4.2345 18.4155 4.2345 18.1651C4.2345 17.9147 4.332 17.6792 4.50909 17.5022L4.84294 17.1683C5.46923 16.542 5.6527 15.6045 5.31056 14.7795L5.30447 14.7648C4.96359 13.9395 4.1708 13.4062 3.28467 13.4062H2.8125C2.29556 13.4062 1.875 12.9857 1.875 12.4688V11.5312C1.875 11.0143 2.29556 10.5938 2.8125 10.5938H3.28467C4.17084 10.5938 4.96364 10.0605 5.30573 9.23217L5.31009 9.22153C5.65284 8.39634 5.46947 7.45828 4.84289 6.83166L4.50909 6.49786C4.14352 6.13228 4.14352 5.53753 4.50909 5.172L5.17195 4.50909C5.34909 4.33205 5.5845 4.2345 5.83491 4.2345C6.08536 4.2345 6.32077 4.332 6.49781 4.50909L6.8317 4.84298C7.45837 5.46952 8.39648 5.65289 9.22191 5.30995L9.23513 5.30447C10.0605 4.96369 10.5938 4.17089 10.5938 3.28472V2.8125C10.5938 2.29556 11.0143 1.875 11.5312 1.875H12.4688C12.9857 1.875 13.4062 2.29556 13.4062 2.8125V3.28472C13.4062 4.17089 13.9395 4.96369 14.7659 5.30484L14.7785 5.31009C15.6036 5.65275 16.5417 5.46942 17.1683 4.84289L17.5022 4.509C17.6793 4.33195 17.9146 4.23445 18.1651 4.23445C18.4155 4.23445 18.651 4.332 18.828 4.50905L19.4909 5.17195C19.8565 5.53748 19.8565 6.13223 19.491 6.49777L19.1571 6.83166C18.5305 7.45828 18.3472 8.3963 18.6885 9.21806L18.6955 9.23517C19.0364 10.0605 19.8292 10.5938 20.7153 10.5938H21.1875C21.7044 10.5938 22.125 11.0143 22.125 11.5312V12.4688Z" fill="black"/>
</svg>

<?xml version="1.0" encoding="iso-8859-1"?>
<!-- Generator: Adobe Illustrator 23.1.0, SVG Export Plug-In . SVG Version: 6.00 Build 0)  -->
<svg version="1.1" id="&#x421;&#x43B;&#x43E;&#x439;_1"
	 xmlns="http://www.w3.org/2000/svg" xmlns:xlink="http://www.w3.org/1999/xlink" x="0px" y="0px" viewBox="0 0 24 24"
	 style="enable-background:new 0 0 24 24;" xml:space="preserve">
<path d="M12,6.563c-2.998,0-5.438,2.439-5.438,5.438c0,2.998,2.439,5.438,5.438,5.438c0.56,0,1.113-0.085,1.642-0.253
	c0.494-0.156,0.767-0.683,0.611-1.177c-0.156-0.494-0.683-0.767-1.177-0.611c-0.347,0.11-0.709,0.165-1.076,0.165
	c-1.964,0-3.563-1.598-3.563-3.563S10.036,8.438,12,8.438s3.563,1.598,3.563,3.563c0,0.341-0.048,0.679-0.143,1.002
	c-0.145,0.497,0.14,1.018,0.637,1.163c0.497,0.145,1.018-0.14,1.163-0.637c0.145-0.495,0.218-1.009,0.218-1.529
	C17.438,9.002,14.998,6.563,12,6.563z"/>
<path d="M21.188,8.719h-0.472c-0.124,0-0.237-0.078-0.286-0.196l-0.008-0.02c-0.05-0.122-0.026-0.257,0.062-0.345l0.334-0.334
	c1.097-1.097,1.097-2.881,0-3.977l-0.663-0.663c-0.531-0.531-1.238-0.824-1.989-0.824c-0.751,0-1.458,0.293-1.989,0.824
	l-0.334,0.334c-0.088,0.088-0.223,0.112-0.344,0.062l-0.018-0.007c-0.121-0.05-0.199-0.163-0.199-0.287V2.813
	C15.281,1.262,14.02,0,12.469,0h-0.938C9.98,0,8.719,1.262,8.719,2.813v0.472c0,0.124-0.078,0.237-0.198,0.286L8.502,3.579
	C8.381,3.629,8.245,3.605,8.158,3.517L7.824,3.183C7.292,2.652,6.586,2.359,5.835,2.359c-0.751,0-1.458,0.293-1.989,0.824
	L3.183,3.846c-1.097,1.097-1.097,2.881,0,3.978l0.334,0.334c0.088,0.088,0.112,0.223,0.06,0.348L3.571,8.519
	C3.521,8.64,3.409,8.719,3.285,8.719H2.813C1.262,8.719,0,9.98,0,11.531v0.938c0,1.551,1.262,2.813,2.813,2.813h0.472
	c0.124,0,0.237,0.078,0.286,0.196l0.008,0.02c0.05,0.122,0.026,0.257-0.062,0.345l-0.334,0.334
	c-0.531,0.531-0.824,1.237-0.824,1.989c0,0.751,0.293,1.458,0.824,1.989l0.663,0.663c0.531,0.531,1.238,0.824,1.989,0.824
	c0.751,0,1.458-0.292,1.989-0.824l0.334-0.334c0.088-0.088,0.223-0.112,0.344-0.062l0.018,0.007c0.121,0.05,0.199,0.163,0.199,0.287
	v0.472C8.719,22.738,9.98,24,11.531,24h0.938c1.551,0,2.812-1.262,2.812-2.813v-0.472c0-0.124,0.078-0.237,0.198-0.286l0.018-0.008
	c0.122-0.05,0.257-0.026,0.345,0.062l0.334,0.334c0.531,0.531,1.238,0.824,1.989,0.824c0.751,0,1.458-0.292,1.989-0.824l0.663-0.663
	c0.531-0.531,0.824-1.237,0.824-1.989c0-0.751-0.292-1.458-0.824-1.989l-0.334-0.334c-0.088-0.088-0.112-0.223-0.062-0.345
	l0.007-0.017c0.05-0.121,0.163-0.199,0.287-0.199h0.472c1.551,0,2.813-1.262,2.813-2.813v-0.938C24,9.98,22.738,8.719,21.188,8.719z
	 M22.125,12.469c0,0.517-0.421,0.937-0.938,0.937h-0.472c-0.886,0-1.679,0.533-2.02,1.359l-0.006,0.015
	c-0.342,0.825-0.159,1.762,0.468,2.389l0.334,0.334c0.177,0.177,0.274,0.413,0.274,0.663s-0.097,0.486-0.275,0.663l-0.663,0.663
	c-0.177,0.177-0.412,0.275-0.663,0.275c-0.25,0-0.486-0.097-0.663-0.275l-0.334-0.334c-0.627-0.626-1.565-0.81-2.39-0.467
	l-0.013,0.005c-0.825,0.341-1.359,1.134-1.359,2.02v0.472c0,0.517-0.421,0.938-0.937,0.938h-0.938c-0.517,0-0.937-0.421-0.937-0.938
	v-0.472c0-0.886-0.533-1.679-1.36-2.02L9.221,18.69c-0.276-0.115-0.565-0.17-0.85-0.17c-0.568,0-1.123,0.221-1.54,0.638
	l-0.334,0.334c-0.177,0.177-0.412,0.274-0.663,0.274c-0.25,0-0.486-0.097-0.663-0.275l-0.663-0.663
	c-0.177-0.177-0.275-0.412-0.275-0.663s0.097-0.486,0.275-0.663l0.334-0.334c0.626-0.626,0.81-1.564,0.468-2.389l-0.006-0.015
	c-0.341-0.825-1.134-1.359-2.02-1.359H2.813c-0.517,0-0.938-0.421-0.938-0.937v-0.938c0-0.517,0.421-0.937,0.938-0.937h0.472
	c0.886,0,1.679-0.533,2.021-1.362L5.31,9.222c0.343-0.825,0.159-1.763-0.467-2.39L4.509,6.498c-0.366-0.366-0.366-0.96,0-1.326
	l0.663-0.663c0.177-0.177,0.413-0.275,0.663-0.275c0.25,0,0.486,0.097,0.663,0.275l0.334,0.334c0.627,0.627,1.565,0.81,2.39,0.467
	l0.013-0.005c0.825-0.341,1.359-1.134,1.359-2.02V2.813c0-0.517,0.421-0.938,0.937-0.938h0.938c0.517,0,0.937,0.421,0.937,0.938
	v0.472c0,0.886,0.533,1.679,1.36,2.02l0.013,0.005c0.825,0.343,1.763,0.159,2.39-0.467l0.334-0.334
	c0.177-0.177,0.412-0.275,0.663-0.275c0.25,0,0.486,0.098,0.663,0.275l0.663,0.663c0.366,0.366,0.366,0.96,0,1.326l-0.334,0.334
	c-0.627,0.627-0.81,1.565-0.469,2.386l0.007,0.017c0.341,0.825,1.134,1.359,2.02,1.359h0.472c0.517,0,0.938,0.421,0.938,0.937
	V12.469z"/>
</svg>
